packages/icons/src/SVG/storage-solid.svg

<!-- Generated by IcoMoon.io -->
<svg version="1.1" xmlns="http://www.w3.org/2000/svg" width="12" height="12" viewBox="0 0 12 12">
<title>storage-solid</title>
<path d="M0 1v3h12v-3h-12z"></path>
<path d="M11 5h-10v7h10v-7zM4 6h4v1h-4v-1z"></path>
</svg>

<svg width="12" height="12" viewBox="0 0 12 12" fill="none" xmlns="http://www.w3.org/2000/svg">
<path d="M0 1V4H12V1H0Z" fill="#4C505B"/>
<path fill-rule="evenodd" clip-rule="evenodd" d="M11 5H1V12H11V5ZM4 6H8V7H4V6Z" fill="#4C505B"/>
</svg>
